X: 28779
T: My Love Is In America
R: reel
M: 4/4
K: Dmixolydian
|:E|FEFG ABcB|Ad~d2 fdAd|~F2FG ABcA|GcAG FDDE|
FDGE ABcB|Add^c defg|afge fdAF|GcAG FDD:|
|:g|fded fde^c|Ad~d2 Ad~d2|fded fdAF|~G2GA FDDg|
fded fdcB|Add^c defg|afge fdAF|GcAG FDD:|

